img/icon-wishes.svg

<svg width="48" height="49" viewBox="0 0 48 49" fill="none" xmlns="http://www.w3.org/2000/svg">
<g clip-path="url(#clip0)">
<path d="M42.1855 42.55C40.2915 41.8419 39.4609 39.9875 39.1342 38.945C39.0144 38.5631 38.6648 38.3064 38.2642 38.3064H38.264C37.8635 38.3065 37.5139 38.5632 37.3943 38.9451C37.0677 39.9874 36.237 41.8418 34.3428 42.55C33.9842 42.6843 33.7525 43.0192 33.7526 43.4035C33.7527 43.7876 33.9845 44.1225 34.343 44.2566C36.2371 44.9648 37.0677 46.8192 37.3943 47.8615C37.5139 48.2434 37.8635 48.5001 38.264 48.5002H38.2642C38.6648 48.5002 39.0144 48.2437 39.1343 47.8615C39.4608 46.8192 40.2914 44.9648 42.1855 44.2566C42.544 44.1225 42.7759 43.7876 42.7759 43.4035C42.776 43.0192 42.5443 42.6843 42.1855 42.55ZM38.2642 46.2452C37.791 45.2635 37.0204 44.1502 35.7919 43.4034C37.0204 42.6566 37.7909 41.5432 38.2642 40.5616C38.7375 41.5433 39.5082 42.6567 40.7366 43.4034C39.508 44.1501 38.7375 45.2636 38.2642 46.2452Z" fill="url(#paint0_linear)"/>
<path d="M14.9085 13.5389H13.3772C12.5873 13.5389 11.9447 14.1815 11.9447 14.9714V17.3756C11.9447 17.9261 12.2573 18.4044 12.7141 18.6441V31.3081C12.7141 32.2967 13.5184 33.101 14.5071 33.101H33.4926C34.4813 33.101 35.2857 32.2967 35.2857 31.3081V26.9064C35.2857 26.518 34.971 26.2033 34.5826 26.2033C34.1942 26.2033 33.8795 26.518 33.8795 26.9064V31.3081C33.8795 31.5213 33.7059 31.6948 33.4926 31.6948H14.5071C14.2938 31.6948 14.1202 31.5213 14.1202 31.3081V18.8082H20.578V27.088C20.578 27.5678 20.8395 28.0092 21.2603 28.2398C21.6812 28.4705 22.1938 28.4533 22.5984 28.1949L23.9999 27.2998L25.4014 28.1949C25.6165 28.3322 25.8621 28.4014 26.1084 28.4014C26.3252 28.4014 26.5424 28.3478 26.7394 28.2397C27.1602 28.0091 27.4216 27.5677 27.4216 27.0879V18.8082H33.8794V23.6485C33.8794 24.0369 34.1941 24.3516 34.5825 24.3516C34.9709 24.3516 35.2856 24.0369 35.2856 23.6485V18.6442C35.7423 18.4045 36.0549 17.9262 36.0549 17.3757V14.9715C36.0549 14.1816 35.4123 13.539 34.6224 13.539H33.0912C33.2834 12.023 32.9268 10.3783 32.9083 10.295C32.9046 10.2778 32.9001 10.2608 32.8949 10.2439C32.4842 8.88343 31.675 8.43777 31.0686 8.30353C29.8854 8.0418 28.3883 8.67091 26.4917 10.2273C26.1232 10.5297 25.78 10.8352 25.4747 11.1198C25.1419 10.988 24.7798 10.9148 24.4007 10.9148H23.5988C23.2197 10.9148 22.8577 10.988 22.5249 11.1198C22.2197 10.8352 21.8764 10.5297 21.5079 10.2273C19.6112 8.67091 18.1141 8.0418 16.931 8.30353C16.3244 8.43787 15.5153 8.88353 15.1047 10.2439C15.0996 10.2608 15.0952 10.2778 15.0913 10.2949C15.0731 10.3782 14.7164 12.0228 14.9085 13.5389ZM26.0157 26.9187L24.707 26.0829C24.2775 25.8084 23.7224 25.8085 23.2929 26.0828L21.9842 26.9188V18.8082H26.0157V26.9187ZM27.3965 11.3036C28.8463 10.1165 30.0735 9.52286 30.765 9.67642C30.8936 9.70492 31.2824 9.79116 31.5412 10.6251C31.6535 11.1471 31.8487 12.4901 31.6718 13.5389H27.3118C27.2501 12.9406 27.0072 12.3956 26.6394 11.9589C26.875 11.7446 27.1295 11.5223 27.3965 11.3036ZM23.5989 12.3208H24.4008C25.1357 12.3208 25.7504 12.8449 25.891 13.5389H22.1087C22.2494 12.8449 22.8641 12.3208 23.5989 12.3208ZM16.4587 10.6247C16.7176 9.79107 17.1063 9.70482 17.2348 9.67642C17.9255 9.52305 19.1533 10.1163 20.6032 11.3036C20.8702 11.5223 21.1246 11.7446 21.3603 11.9589C20.9926 12.3956 20.7497 12.9406 20.6881 13.5389H16.3283C16.1527 12.4924 16.347 11.1472 16.4587 10.6247ZM34.6489 14.9714V17.3756C34.6489 17.3901 13.3509 17.3901 13.3509 17.3756V14.9714C13.3509 14.9569 34.6489 14.9569 34.6489 14.9714Z" fill="url(#paint1_linear)"/>
<path d="M43.347 4.9314H17.5006C17.1123 4.9314 16.7976 5.2461 16.7976 5.63448C16.7976 6.02286 17.1123 6.33756 17.5006 6.33756H43.3471C44.5013 6.33756 45.4403 7.2766 45.4403 8.43069V33.5084C45.4403 34.6626 44.5012 35.6015 43.3471 35.6015H17.1169C16.0964 35.6015 15.1404 36.1463 14.6219 37.0232C12.5431 40.5394 9.3233 42.3606 6.98813 43.2692C6.9691 43.2765 6.91913 43.2959 6.86767 43.2414C6.82014 43.1912 6.83879 43.1501 6.84779 43.1303C7.41054 41.8906 7.76115 40.4106 7.88995 38.7311C7.95163 37.9247 7.67237 37.1225 7.12368 36.5301C6.57687 35.9399 5.80179 35.6014 4.99709 35.6014H4.65277C3.49858 35.6014 2.55964 34.6624 2.55964 33.5083V8.43078C2.55964 7.41309 3.28991 6.56311 4.25388 6.37619C4.3016 6.40487 4.35213 6.43 4.40594 6.45015C6.30004 7.1583 7.13062 9.01275 7.45723 10.0551C7.57684 10.437 7.92642 10.6937 8.32699 10.6938H8.32718C8.72775 10.6938 9.07732 10.4373 9.19722 10.0551C9.52373 9.01275 10.3544 7.1583 12.2484 6.45015C12.3251 6.42147 12.3955 6.38312 12.4595 6.33766H14.2272C14.6156 6.33766 14.9303 6.02296 14.9303 5.63457C14.9303 5.24619 14.6156 4.93149 14.2272 4.93149H12.5523C12.4666 4.85143 12.3642 4.78694 12.2484 4.74363C10.3544 4.03548 9.52373 2.18112 9.19703 1.13859C9.07751 0.756579 8.72793 0.5 8.32727 0.5H8.32708C7.92651 0.500094 7.57694 0.756766 7.45732 1.13868C7.13081 2.18103 6.30004 4.03539 4.40612 4.74353C4.26579 4.79603 4.14523 4.87956 4.04999 4.98446C2.40693 5.27113 1.15356 6.70682 1.15356 8.43078V33.5084C1.15356 35.4379 2.72332 37.0077 4.65286 37.0077H4.99718C5.41763 37.0077 5.80648 37.1775 6.09212 37.4859C6.37973 37.7964 6.52025 38.2005 6.48791 38.6238C6.37185 40.1389 6.06212 41.4596 5.56752 42.5491C5.31329 43.1092 5.42278 43.7604 5.84651 44.208C6.13993 44.518 6.53844 44.6838 6.9466 44.6838C7.13146 44.6837 7.3183 44.6497 7.49819 44.5797C10.04 43.5906 13.5492 41.601 15.8325 37.7389C16.0992 37.2878 16.5914 37.0077 17.117 37.0077H43.3472C45.2768 37.0077 46.8465 35.4379 46.8465 33.5084V8.43078C46.8464 6.50124 45.2766 4.9314 43.347 4.9314ZM8.32736 2.75502C8.80068 3.73681 9.57117 4.85012 10.7997 5.59679C9.57117 6.34366 8.80058 7.45706 8.32727 8.43866C7.85395 7.45697 7.08356 6.34366 5.85495 5.59689C7.08356 4.85003 7.85395 3.73672 8.32736 2.75502Z" fill="url(#paint2_linear)"/>
</g>
<defs>
<linearGradient id="paint0_linear" x1="38.2643" y1="38.3064" x2="38.2643" y2="48.5002" gradientUnits="userSpaceOnUse">
<stop stop-color="#C45ED3"/>
<stop offset="1" stop-color="#FBA2B8"/>
</linearGradient>
<linearGradient id="paint1_linear" x1="23.9998" y1="8.24597" x2="23.9998" y2="33.101" gradientUnits="userSpaceOnUse">
<stop stop-color="#C45ED3"/>
<stop offset="1" stop-color="#FBA2B8"/>
</linearGradient>
<linearGradient id="paint2_linear" x1="24" y1="0.5" x2="24" y2="44.6838" gradientUnits="userSpaceOnUse">
<stop stop-color="#C45ED3"/>
<stop offset="1" stop-color="#FBA2B8"/>
</linearGradient>
<clipPath id="clip0">
<rect width="48" height="48" fill="white" transform="translate(0 0.5)"/>
</clipPath>
</defs>
</svg>

<svg xmlns="http://www.w3.org/2000/svg" width="48" height="49" fill="none"  ><g clip-path="url(#D)"><path d="M42.186 42.55c-1.894-.708-2.725-2.562-3.051-3.605a.91.91 0 0 0-.87-.639h0a.91.91 0 0 0-.87.639c-.327 1.042-1.157 2.897-3.052 3.605-.359.134-.59.469-.59.854s.232.719.59.853c1.894.708 2.725 2.563 3.051 3.605a.91.91 0 0 0 .87.639h0a.91.91 0 0 0 .87-.639c.326-1.042 1.157-2.897 3.051-3.605.358-.134.59-.469.59-.853s-.232-.719-.59-.854zm-3.921 3.695c-.473-.982-1.244-2.095-2.472-2.842 1.229-.747 1.999-1.86 2.472-2.842.473.982 1.244 2.095 2.472 2.842-1.229.747-1.999 1.86-2.472 2.842z" fill="url(#A)"/><path d="M14.909 13.539h-1.531c-.79 0-1.433.643-1.433 1.432v2.404c0 .551.313 1.029.769 1.269v12.664c0 .989.804 1.793 1.793 1.793h18.986c.989 0 1.793-.804 1.793-1.793v-4.402c0-.388-.315-.703-.703-.703s-.703.315-.703.703v4.402c0 .213-.174.387-.387.387H14.507c-.213 0-.387-.174-.387-.387v-12.5h6.458v8.28c0 .48.262.921.682 1.152s.933.213 1.338-.045L24 27.3l1.401.895c.215.137.461.206.707.206a1.31 1.31 0 0 0 .631-.162c.421-.231.682-.672.682-1.152v-8.28h6.458v4.84c0 .388.315.703.703.703s.703-.315.703-.703v-5.004c.457-.24.769-.718.769-1.269v-2.404c0-.79-.643-1.433-1.433-1.433h-1.531c.192-1.516-.164-3.161-.183-3.244l-.013-.051c-.411-1.36-1.22-1.806-1.826-1.94-1.183-.262-2.68.367-4.577 1.924l-1.017.893a2.91 2.91 0 0 0-1.074-.205h-.802a2.91 2.91 0 0 0-1.074.205l-1.017-.893c-1.897-1.556-3.394-2.185-4.577-1.924-.607.134-1.416.58-1.826 1.94l-.013.051c-.018.083-.375 1.728-.183 3.244zm11.107 13.38l-1.309-.836a1.32 1.32 0 0 0-1.414 0l-1.309.836v-8.111h4.031v8.111zm1.381-15.615c1.45-1.187 2.677-1.781 3.369-1.627.129.028.517.115.776.949.112.522.308 1.865.131 2.914h-4.36c-.062-.598-.305-1.143-.672-1.58l.757-.655zm-3.798 1.017h.802c.735 0 1.35.524 1.49 1.218h-3.782c.141-.694.755-1.218 1.49-1.218zm-7.14-1.696c.259-.834.648-.92.776-.948.691-.153 1.919.44 3.368 1.627l.757.655c-.368.437-.611.982-.672 1.58h-4.36c-.176-1.046.019-2.392.13-2.914zm18.19 4.347v2.404c0 .015-21.298.015-21.298 0v-2.404c0-.014 21.298-.014 21.298 0z" fill="url(#B)"/><path d="M43.347 4.931H17.501c-.388 0-.703.315-.703.703s.315.703.703.703h25.847c1.154 0 2.093.939 2.093 2.093v25.078c0 1.154-.939 2.093-2.093 2.093h-26.23a2.91 2.91 0 0 0-2.495 1.422c-2.079 3.516-5.299 5.337-7.634 6.246-.019.007-.069.027-.12-.028s-.029-.091-.02-.111c.563-1.24.913-2.72 1.042-4.399a2.92 2.92 0 0 0-.766-2.201 2.91 2.91 0 0 0-2.127-.929h-.344c-1.154 0-2.093-.939-2.093-2.093V8.431c0-1.018.73-1.868 1.694-2.055.048.029.098.054.152.074 1.894.708 2.725 2.563 3.051 3.605a.91.91 0 0 0 .87.639h0a.91.91 0 0 0 .87-.639c.327-1.042 1.157-2.897 3.051-3.605a.92.92 0 0 0 .211-.112h1.768c.388 0 .703-.315.703-.703s-.315-.703-.703-.703h-1.675a.91.91 0 0 0-.304-.188c-1.894-.708-2.725-2.563-3.051-3.605C9.078.757 8.728.5 8.327.5h0c-.401 0-.75.257-.87.639C7.131 2.181 6.3 4.035 4.406 4.744a.91.91 0 0 0-.356.241c-1.643.287-2.896 1.722-2.896 3.446v25.078c0 1.929 1.57 3.499 3.499 3.499h.344c.42 0 .809.17 1.095.478a1.49 1.49 0 0 1 .396 1.138c-.116 1.515-.426 2.836-.92 3.925a1.5 1.5 0 0 0 .279 1.659c.293.31.692.476 1.1.476a1.52 1.52 0 0 0 .552-.104c2.542-.989 6.051-2.979 8.334-6.841a1.5 1.5 0 0 1 1.285-.731h26.23c1.93 0 3.499-1.57 3.499-3.499V8.431c0-1.93-1.57-3.499-3.499-3.499zM8.327 2.755c.473.982 1.244 2.095 2.472 2.842-1.229.747-1.999 1.86-2.472 2.842-.473-.982-1.244-2.095-2.472-2.842 1.229-.747 1.999-1.86 2.472-2.842z" fill="url(#C)"/></g><defs><linearGradient id="A" x1="38.264" y1="38.306" x2="38.264" y2="48.5" gradientUnits="userSpaceOnUse"><stop stop-color="#c45ed3"/><stop offset="1" stop-color="#fba2b8"/></linearGradient><linearGradient id="B" x1="24" y1="8.246" x2="24" y2="33.101" gradientUnits="userSpaceOnUse"><stop stop-color="#c45ed3"/><stop offset="1" stop-color="#fba2b8"/></linearGradient><linearGradient id="C" x1="24" y1=".5" x2="24" y2="44.684" gradientUnits="userSpaceOnUse"><stop stop-color="#c45ed3"/><stop offset="1" stop-color="#fba2b8"/></linearGradient><clipPath id="D"><path fill="#fff" transform="translate(0 .5)" d="M0 0h48v48H0z"/></clipPath></defs></svg>
